src/assets/media/svg/sprite/instagram.svg

<svg xmlns="http://www.w3.org/2000/svg" width="24" height="24"><path fill-rule="evenodd" d="M18.447 4.101a1.4 1.4 0 1 0 0 2.8 1.4 1.4 0 0 0 0-2.8m3.321 13.227a4.444 4.444 0 0 1-4.44 4.44H6.672a4.445 4.445 0 0 1-4.441-4.44V6.672a4.446 4.446 0 0 1 4.441-4.441h10.656a4.445 4.445 0 0 1 4.44 4.441zM17.328 0H6.672A6.68 6.68 0 0 0 0 6.672v10.656A6.68 6.68 0 0 0 6.672 24h10.656A6.68 6.68 0 0 0 24 17.328V6.672A6.68 6.68 0 0 0 17.328 0M12 16.144A4.15 4.15 0 0 1 7.854 12 4.15 4.15 0 0 1 12 7.854 4.15 4.15 0 0 1 16.144 12 4.147 4.147 0 0 1 12 16.144m0-10.52A6.384 6.384 0 0 0 5.624 12 6.384 6.384 0 0 0 12 18.376 6.385 6.385 0 0 0 18.376 12 6.384 6.384 0 0 0 12 5.624" clip-rule="evenodd"/></svg>

<svg width="24" height="24" viewBox="0 0 24 24"  xmlns="http://www.w3.org/2000/svg">
<path fill-rule="evenodd" clip-rule="evenodd" d="M18.447 4.101C17.674 4.101 17.047 4.728 17.047 5.501C17.047 6.274 17.674 6.901 18.447 6.901C19.219 6.901 19.846 6.274 19.846 5.501C19.846 4.728 19.219 4.101 18.447 4.101ZM21.768 17.328C21.768 19.777 19.777 21.768 17.328 21.768H6.672C4.223 21.768 2.231 19.777 2.231 17.328V6.672C2.231 4.223 4.223 2.231 6.672 2.231H17.328C19.777 2.231 21.768 4.223 21.768 6.672V17.328ZM17.328 0H6.672C2.993 0 0 2.993 0 6.672V17.328C0 21.007 2.993 24 6.672 24H17.328C21.007 24 24 21.007 24 17.328V6.672C24 2.993 21.006 0 17.328 0ZM12 16.144C9.714 16.144 7.854 14.286 7.854 12C7.854 9.714 9.714 7.854 12 7.854C14.286 7.854 16.144 9.714 16.144 12C16.144 14.286 14.286 16.144 12 16.144ZM12 5.62401C8.48501 5.62401 5.62401 8.48501 5.62401 12C5.62401 15.515 8.48401 18.376 12 18.376C15.514 18.376 18.376 15.515 18.376 12C18.376 8.48501 15.515 5.62401 12 5.62401Z" />
</svg>
